src/assets/BalanceCard/franc-icon.svg

<?xml version="1.0" encoding="UTF-8"?>
<svg width="38px" height="38px" viewBox="0 0 38 38" version="1.1" xmlns="http://www.w3.org/2000/svg" xmlns:xlink="http://www.w3.org/1999/xlink">
    <!-- Generator: sketchtool 52.2 (67145) - http://www.bohemiancoding.com/sketch -->
    <title>B26F7EFE-93DA-4A9D-8777-0989A3F949B5</title>
    <desc>Created with sketchtool.</desc>
    <defs>
        <linearGradient x1="152.495633%" y1="-54.3584516%" x2="-33.0865577%" y2="137.256137%" id="linearGradient-1">
            <stop stop-color="#C86DD7" offset="0%"></stop>
            <stop stop-color="#3023AE" offset="100%"></stop>
        </linearGradient>
    </defs>
    <g id="Web-App---Desktop" stroke="none" stroke-width="1" fill="none" fill-rule="evenodd">
        <g id="Home---Tier-0-User" transform="translate(-1026.000000, -365.000000)">
            <g id="Top" transform="translate(0.000000, -2.000000)">
                <g id="Balances" transform="translate(115.000000, 317.000000)">
                    <g id="Balance-4" transform="translate(894.000000, 0.000000)">
                        <g id="Icon" transform="translate(16.000000, 49.000000)">
                            <path d="M10,6 L30,6 C32.209139,6 34,7.790861 34,10 L34,30 C34,32.209139 32.209139,34 30,34 L10,34 C7.790861,34 6,32.209139 6,30 L6,10 C6,7.790861 7.790861,6 10,6 Z" id="Container" fill="url(#linearGradient-1)" transform="translate(20.000000, 20.000000) rotate(-45.000000) translate(-20.000000, -20.000000) "></path>
                            <text id="36" fill="#FFFFFF" opacity="0.08" font-family="Rubik-Medium, Rubik" font-size="16" font-weight="400">
                                <tspan x="10.428" y="26">36</tspan>
                            </text>
                            <g id="Symbol-Icon" transform="translate(14.000000, 14.000000)" fill="#FFFFFF">
                                <rect id="Rectangle" x="0" y="9.53333333" width="9.28571429" height="1.73333333" rx="0.866666667"></rect>
                                <path d="M2.36363636,13 C2.22294302,13 2.10335547,12.9566671 2.00487013,12.87 C1.90638479,12.7833329 1.85714286,12.6780959 1.85714286,12.5542857 L1.85714286,0.464285714 C1.85714286,0.328094557 1.90286751,0.2166671 1.99431818,0.13 C2.08576886,0.0433329 2.20887369,0 2.36363636,0 L11.5438312,0 C11.6985938,0 11.825216,0.0433329 11.9237013,0.13 C12.0221866,0.2166671 12.0714286,0.328094557 12.0714286,0.464285714 L12.0714286,1.80142857 C12.0714286,1.92523871 12.0221866,2.03047576 11.9237013,2.11714286 C11.825216,2.20380996 11.6985938,2.24714286 11.5438312,2.24714286 L4.79058442,2.24714286 L4.79058442,5.73857143 L11.1217532,5.73857143 C11.2765159,5.73857143 11.403138,5.78190433 11.5016234,5.86857143 C11.6001087,5.95523853 11.6493506,6.06047557 11.6493506,6.18428571 L11.6493506,7.52142857 C11.6493506,7.64523871 11.6001087,7.75047576 11.5016234,7.83714286 C11.403138,7.92380996 11.2765159,7.96714286 11.1217532,7.96714286 L4.79058442,7.96714286 L4.79058442,12.5542857 C4.79058442,12.6780959 4.74134248,12.7833329 4.64285714,12.87 C4.5443718,12.9566671 4.41774969,13 4.26298701,13 L2.36363636,13 Z" id="F"></path>
                            </g>
                        </g>
                    </g>
                </g>
            </g>
        </g>
    </g>
</svg>

<?xml version="1.0" encoding="UTF-8" standalone="no"?>
<svg
   xmlns:dc="http://purl.org/dc/elements/1.1/"
   xmlns:cc="http://creativecommons.org/ns#"
   xmlns:rdf="http://www.w3.org/1999/02/22-rdf-syntax-ns#"
   xmlns:svg="http://www.w3.org/2000/svg"
   xmlns="http://www.w3.org/2000/svg"
   xmlns:xlink="http://www.w3.org/1999/xlink"
   xmlns:sodipodi="http://sodipodi.sourceforge.net/DTD/sodipodi-0.dtd"
   xmlns:inkscape="http://www.inkscape.org/namespaces/inkscape"
   sodipodi:docname="franc-icon-2.svg"
   inkscape:version="1.0 (4035a4f, 2020-05-01)"
   id="svg4055"
   version="1.1"
   viewBox="0 0 12.520455 12.520455"
   height="12.520455mm"
   width="12.520455mm">
  <defs
     id="defs4049">
    <linearGradient
       x1="48.698776"
       y1="-9.2203665"
       x2="-3.2642367"
       y2="44.431717"
       id="linearGradient-1"
       gradientUnits="userSpaceOnUse">
      <stop
         stop-color="#C86DD7"
         offset="0%"
         id="stop4622" />
      <stop
         style="stop-opacity:0.698"
         stop-color="#3023AE"
         offset="100%"
         id="stop4624" />
    </linearGradient>
    <linearGradient
       inkscape:collect="always"
       xlink:href="#linearGradient-1"
       id="linearGradient3664"
       x1="38.925827"
       y1="105.33221"
       x2="37.484245"
       y2="107.00417"
       gradientUnits="userSpaceOnUse"
       gradientTransform="matrix(2.82123,0,0,2.3399795,-99.643734,-248.76566)" />
    <linearGradient
       gradientUnits="userSpaceOnUse"
       id="linearGradient-1-9"
       y2="151.99301"
       x2="214.34811"
       y1="108.83739"
       x1="257.25031"
       gradientTransform="matrix(-0.26200842,0.03682288,-0.03682288,-0.26200842,95.579589,134.16304)">
      <stop
         id="stop3574"
         offset="0%"
         stop-color="#69B4EF" />
      <stop
         id="stop3576"
         offset="100%"
         stop-color="#623479" />
    </linearGradient>
  </defs>
  <sodipodi:namedview
     inkscape:window-maximized="0"
     inkscape:window-y="259"
     inkscape:window-x="1597"
     inkscape:window-height="1915"
     inkscape:window-width="2037"
     showgrid="false"
     inkscape:document-rotation="0"
     inkscape:current-layer="layer1"
     inkscape:document-units="mm"
     inkscape:cy="149.98549"
     inkscape:cx="59.088875"
     inkscape:zoom="5.6"
     inkscape:pageshadow="2"
     inkscape:pageopacity="0.0"
     borderopacity="1.0"
     bordercolor="#666666"
     pagecolor="#ffffff"
     id="base" />
  <metadata
     id="metadata4052">
    <rdf:RDF>
      <cc:Work
         rdf:about="">
        <dc:format>image/svg+xml</dc:format>
        <dc:type
           rdf:resource="http://purl.org/dc/dcmitype/StillImage" />
        <dc:title></dc:title>
      </cc:Work>
    </rdf:RDF>
  </metadata>
  <g
     transform="translate(1.4602272,1.4602259)"
     id="layer1"
     inkscape:groupmode="layer"
     inkscape:label="Layer 1">
    <rect
       transform="rotate(45)"
       style="opacity:0.65;fill:url(#linearGradient3664);fill-opacity:1;stroke-width:2.37833;stroke-miterlimit:4;stroke-dasharray:none"
       id="rect3656"
       width="9.6000004"
       height="9.6000004"
       x="1.9882263"
       y="-4.7999992"
       ry="1.277505" />
    <g
       id="Symbol-Icon"
       transform="matrix(0.46153846,0,0,0.46153846,1.9715491,2.0921508)"
       fill="#ffffff"
       style="fill:#ffffff;fill-opacity:0.9;fill-rule:evenodd;stroke:none;stroke-width:1">
      <rect
         style="fill:#ffffff;fill-opacity:0.9"
         id="Rectangle"
         x="0"
         y="9.5333338"
         width="9.2857141"
         height="1.7333333"
         rx="0.86666667" />
      <path
         style="fill:#ffffff;fill-opacity:0.9"
         d="M 2.3636364,13 C 2.222943,13 2.1033555,12.956667 2.0048701,12.87 1.9063848,12.783333 1.8571429,12.678096 1.8571429,12.554286 V 0.46428571 C 1.8571429,0.32809456 1.9028675,0.2166671 1.9943182,0.13 2.0857689,0.0433329 2.2088737,0 2.3636364,0 h 9.1801946 c 0.154763,0 0.281385,0.0433329 0.37987,0.13 0.09849,0.0866671 0.147728,0.19809456 0.147728,0.33428571 V 1.8014286 c 0,0.1238101 -0.04924,0.2290472 -0.147728,0.3157143 -0.09849,0.086667 -0.225107,0.13 -0.37987,0.13 H 4.7905844 v 3.4914285 h 6.3311686 c 0.154763,0 0.281385,0.043333 0.37987,0.13 0.09849,0.086667 0.147728,0.1919042 0.147728,0.3157143 v 1.3371429 c 0,0.1238101 -0.04924,0.2290472 -0.147728,0.3157143 -0.09849,0.086667 -0.225107,0.13 -0.37987,0.13 H 4.7905844 v 4.5871431 c 0,0.12381 -0.049242,0.229047 -0.1477273,0.315714 C 4.5443718,12.956667 4.4177497,13 4.262987,13 Z"
         id="F" />
    </g>
  </g>
</svg>
